X: 7233
T: Clancy's
R: jig
M: 6/8
K: Dmajor
BEE B2d|BEE BAF|B~E2 B2d|BAF AFD|
B~E2 B2d|B~E2 BAF|DFA ded|BAF AFD|
B~E2 B2d|B~E2BAF|B~E2 B2d|BAF AFD|
B~E2 B~E2|B~E2 BAF|DFA ded|BAF AFE||
DFA ded|BAB dAF|DFA ded|cAG FEF|
DFA ded|~e3 efg|e~f2 ede|fdB AFA|
DFA d3|A~B2 dAF|DFA ded|cAG FEF|
DFA dcd|~e3 efg|e~f2 ede|fdB AFA||

